X:1
T:Room for Jesus
T:Room for Jesus
T:F. M. Atkinson
T:F. M. Atkinson, 1904
T:Public Domain Courtesy of the Cyber Hymnal™
C:F. M. Atkinson
Z:Public Domain
Z:Courtesy of the Cyber Hymnal™
%%score ( 1 2 ) 3
L:1/8
Q:1/4=103
M:4/4
K:C
V:1 treble 
V:2 treble 
V:3 bass 
V:1
 [EG]3 [EG] [^D^F][EG][=FA][FB] | [Ec]4 [EG]2 z2 | [FB]3 [FA] [FG][FG]F[FA] | [EG]6 z2 | %4
w: 1.~Is there a- ny room for|Je- sus?|He who died on Cal- va-|ry,|
w: 2.~We have room for world- ly|plea- sures,|Cares of life crowd ev- ery|day,|
w: 3.~Will you not make room for|Je- sus,|For the Christ, the Cru- ci-|fied?|
w: 4.~Room and time and thought for|Je- sus,|Hast- en to ac- cept His|grace|
 [EG]3 [EG] [^D^F][EG][=FA][FB] | [Ec]4 [EG]2 z2 | [DB]3 [GB] [^FB][FA][Fc][FB] | G6 z2 || %8
w: He who stand- eth, knock- ing,|wait- ing,|Plead- ing with you ten- der-|ly.|
w: And our hearts and minds are|bur- dened|While the Lord is turned a-|way.|
w: Is thee not some place to|en- ter|In the soul for which He|died?|
w: Ere the heart grows cold and|care- less,|And His plead- ing voice shall|cease.|
"^Refrain" [Fd]3 [Fd] [Fd][Fd][Ge][Fd] | [Ec]4 [EG]2 z2 | [FA]3 [GB] [Ac][Ad] [Ac]>[FA] | %11
w: |||
w: Room for Je- sus, room for|Je- sus,|Let Him in your heart to-|
w: |||
w: |||
 [EG]6 z2 | [EG]3 [EG] [^D^F][EG][Ec][EB] | [Fd]4 [FA]2 z2 | [FB]3 [FA] [FG][FA][FB][Fd] | [Ec]8 |] %16
w: |||||
w: day,|Throw- ing ev- ery win- dow|o- pen,|O re- ceive Him while you|may.|
w: |||||
w: |||||
V:2
 x8 | x8 | x6 F x | x8 | x8 | x8 | x8 | G6 x2 || x8 | x8 | x8 | x8 | x8 | x8 | x8 | x8 |] %16
V:3
 [C,C]3 [C,C] [C,C][C,C][C,C][C,C] | [C,C]4 [C,C]2 z2 | [G,D]3 [G,D] [G,D][G,D][G,D][G,D] | %3
 [C,C]6 z2 | [C,C]3 [C,C] [C,C][C,C][C,C][C,C] | [C,C]4 [C,C]2 z2 | %6
 [D,B,]3 [D,B,] [D,D][D,D][D,D][^F,D] | [G,B,]6 z2 || [G,B,]3 [G,B,] [G,B,][G,B,][G,B,][G,B,] | %9
 [C,C]4 ([C,C]2 E,2) | [F,C]3 [F,C] [F,C][F,C] [F,C]>[F,C] | [C,C]6 z2 | %12
 [C,C]3 [C,C] [C,C][C,C][C,C][C,C] | [F,C]4 [F,C]2 z2 | [G,D]3 [G,D] [G,D][G,D][G,D][G,B,] | %15
 [C,C]8 |] %16

